X: 37
T: Humours of Ennistymon
T:Coppers and Brass
M: 6/8
L: 1/8
R: jig
K:Gmaj
A|:"G"~B3 GBd|"C"cBc "Am"ABc|"G"~B3 GBd|"C"cAG "D"FGA|
"G"~B3 GBd|"C"cBc "Am"ABc|"G"ded "D7"cAF |1 AGF "G"G2 A:|2 AGF "G"G2 e||
|:"D"~f3 fed|"D7"cAG FGA|"G"G2g gfg|"D"afd d2 e|
fag fed|"D7"cAG FGA|"G"~B2d "D7"cAF|1 AGF "G"G2 e:|2 AGF "G"GBd||
"G"gdB gdB|"Am"ecA ecA|"G"~B3 GBd|"C"cAG "D"FGA|
"G"gdB gdB|"Am"ecA ecA|"G"~B3 GBd|"D7" cAF "G"GBd|
"G"gdB gdB|"Am"ecA ecA|"G"~B3 GBd|"C"cAG "D"FGA|
"G"~B3 GBd|"Am"cBc ABc|"G"ded "D7"cAF |AGF "G"G2 |]


